X: 388
T: Big Liza Jane
B: jims roots
M:4/4
L:1/8
R: reel
Q: 1/4=100
K:D
V:1 
%Q:1/2=120
"D"D2F2A4|"D"BAF2 A2AB|"D"d2d2 dBAB| "D"d3ed4|
"D"D2F2A4|"D"BAF2 A2AB|"G"d2f2 edB2|"A"A3BA4:|
|:"G"g2ga gfeg|"D"f2fg fed2|"A"efed cABc|"D"dcde [f4d4]|
"G"[g3d3][fd] [g4d4]|"D"[f2d2][fd][gd] [fd][ed] d2|"A"efed cAB2|[1 "D" A3BA4:|[2 "D" A2G2F2E2||
% abcbook-tune_id 6298c245c8dac1e68b03adf4


% abcbook-boost 0
% abcbook-tablature 
% abcbook-transpose 
% abcbook-lastupdated 1654178373303
% abcbook-soundfonts 
% abcbook-repeats 1


